dist/svg/u1F485_u1F3FF.svg

<?xml version="1.0" encoding="UTF-8"?><svg id="Layer_1" xmlns="http://www.w3.org/2000/svg" viewBox="0 0 40 40"><g><path d="M28.05823,18.66648h.00001c4.10084,0,7.43021,3.32936,7.43021,7.43021v11.40331h-14.86043v-11.40331c0-4.10084,3.32936-7.43021,7.43021-7.43021Z" style="fill:#6e4944;"/><path d="M27.97855,15.67537c-3.1098,0-5.63076,2.52126-5.63076,5.63136v6.06736c0,3.52656,2.52096,6.38489,5.63076,6.38489s5.63106-2.85833,5.63106-6.38489v-6.06736c0-3.1101-2.52111-5.63136-5.63106-5.63136Z" style="fill:#ef3452;"/><path d="M11.94176,11.69946h.00001c4.10084,0,7.43021,3.32936,7.43021,7.43021v18.37033H4.51155V19.12967c0-4.10084,3.32936-7.43021,7.43021-7.43021Z" style="fill:#6e4944;"/><path d="M11.86216,8.70875c-3.10995,0-5.63091,2.52066-5.63091,5.63076v6.06795c0,3.52597,2.52096,6.38489,5.63091,6.38489s5.63091-2.85892,5.63091-6.38489v-6.06795c0-3.1101-2.52096-5.63076-5.63091-5.63076Z" style="fill:#ef3452;"/><rect x="22.23633" y="-.46175" width="3.66187" height="18.18956" transform="translate(19.51005 -16.52635) rotate(60)" style="fill:#495b73;"/><polygon points="13.85008 18.38401 10.66361 12.86488 17.87101 10.09625 19.70194 13.26753 13.85008 18.38401" style="fill:#fa878f;"/></g><rect width="40" height="40" style="fill:none;"/></svg>

<svg id="Layer_1" data-name="Layer 1" xmlns="http://www.w3.org/2000/svg" viewBox="0 0 40 40"><defs><style>.cls-1{fill:#6e4944;}.cls-2{fill:#ef3452;}.cls-3{fill:#495b73;}.cls-4{fill:#fa878f;}.cls-5{fill:none;}</style></defs><path class="cls-1" d="M28.058,18.666h0a7.43,7.43,0,0,1,7.43,7.43V37.5a0,0,0,0,1,0,0H20.628a0,0,0,0,1,0,0V26.1A7.43,7.43,0,0,1,28.058,18.666Z"/><path class="cls-2" d="M27.979,15.675a5.632,5.632,0,0,0-5.631,5.632v6.067c0,3.527,2.521,6.385,5.631,6.385S33.61,30.9,33.61,27.374V21.307A5.632,5.632,0,0,0,27.979,15.675Z"/><path class="cls-1" d="M11.942,11.7h0a7.43,7.43,0,0,1,7.43,7.43V37.5a0,0,0,0,1,0,0H4.512a0,0,0,0,1,0,0V19.13a7.43,7.43,0,0,1,7.43-7.43Z"/><path class="cls-2" d="M11.862,8.709A5.63,5.63,0,0,0,6.231,14.34v6.067c0,3.526,2.521,6.385,5.631,6.385s5.631-2.859,5.631-6.385V14.34A5.63,5.63,0,0,0,11.862,8.709Z"/><rect class="cls-3" x="22.236" y="-0.462" width="3.662" height="18.19" transform="translate(19.51 -16.526) rotate(60)"/><polygon class="cls-4" points="13.85 18.384 10.664 12.865 17.871 10.096 19.702 13.268 13.85 18.384"/><rect class="cls-5" width="40" height="40"/></svg>
